X: 6317
T: Carrie's
R: reel
M: 4/4
K: Amajor
cB|"A"Acec dcBc|A2 af e2 ce|"D"f2 af ecBA|"E"cBBc B2 cB|
"A"Acec dcBc|A2 af e2 ce|"D"f2 af ecBd|1 "A"cAAB A2:|2 "E"cAAB A2 ce||
"D"f4 feef|"E"feef "A"c2 BA|"F^m"ceaf ec"F^m"BA|cBBc "E"B2 ce|
"D"f4 fe"E"ef|feef "A"c2 BA|"F^m"ceaf "E"ecBd|cAAB "A"A2 ce|
"D"f4 feef|"E"feef "A"c2 BA|"F^m"ceaf ecBA|cBBc "E"B2 cB|
"A"Acec dcBc|A2 af e2 ce|"D"f2 af "E"ecBd|"A"cAAB A4||

